Dominus_Dark_Funeral/scalable/apps/wesnoth.svg

<svg xmlns="http://www.w3.org/2000/svg" xmlns:xlink="http://www.w3.org/1999/xlink" width="48" height="48" viewBox="0 0 12.7 12.7"><defs><linearGradient id="i"><stop offset="0" stop-color="#d7eef4"/><stop offset=".45" stop-color="#5fbcb5"/><stop offset=".64" stop-color="#5fbcd3"/><stop offset="1" stop-color="#d7eef4"/></linearGradient><linearGradient id="h"><stop offset="0"/><stop offset="1" stop-opacity="0"/></linearGradient><clipPath id="a"/><linearGradient id="b"><stop offset="0" stop-color="#efb66b"/><stop offset="1" stop-color="#553e23" stop-opacity="0"/></linearGradient><radialGradient xlink:href="#c" id="l" gradientUnits="userSpaceOnUse" gradientTransform="matrix(-.04867 .04868 .02146 .02146 -25.36 301.61)" cx="-494.94" cy="458.35" fx="-494.94" fy="458.35" r="6.13"/><linearGradient id="c"><stop offset="0" stop-color="#fff"/><stop offset="1" stop-color="#fff" stop-opacity="0"/></linearGradient><radialGradient xlink:href="#d" id="m" gradientUnits="userSpaceOnUse" gradientTransform="matrix(.0975 .1136 .0087 -.00747 52.34 352.89)" cx="-501.28" cy="566.19" fx="-501.28" fy="566.19" r="12.25"/><linearGradient id="d"><stop offset="0" stop-color="#f5f5f5"/><stop offset="1" stop-color="#f5f5f5" stop-opacity="0"/></linearGradient><radialGradient xlink:href="#e" id="n" gradientUnits="userSpaceOnUse" gradientTransform="matrix(.04281 .0429 .00239 -.00238 27.8 314.29)" cx="-483.87" cy="567.97" fx="-483.87" fy="567.97" r="13.27"/><linearGradient id="e"><stop offset="0" stop-color="#7e7c80"/><stop offset="1" stop-color="#7e7c80" stop-opacity="0"/></linearGradient><radialGradient xlink:href="#c" id="o" cx="-494.94" cy="458.35" fx="-494.94" fy="458.35" r="6.13" gradientTransform="matrix(.04867 .04868 -.02146 .02146 38.01 301.61)" gradientUnits="userSpaceOnUse"/><linearGradient xlink:href="#f" id="p" x1="-498.86" y1="458.74" x2="-478.53" y2="471.12" gradientUnits="userSpaceOnUse" gradientTransform="matrix(.04215 0 0 .04215 24.94 268.03)"/><linearGradient id="f"><stop offset="0" stop-color="#553e23"/><stop offset="1" stop-color="#553e23" stop-opacity="0"/></linearGradient><linearGradient xlink:href="#f" id="q" x1="-428.5" y1="439.61" x2="-466.5" y2="457.86" gradientUnits="userSpaceOnUse" gradientTransform="matrix(.04215 0 0 .04215 24.94 268.03)"/><linearGradient xlink:href="#f" id="r" x1="-400.22" y1="439.83" x2="-390.85" y2="520.09" gradientUnits="userSpaceOnUse" gradientTransform="matrix(.04215 0 0 .04215 24.94 268.03)"/><linearGradient xlink:href="#f" id="s" x1="-431.56" y1="611.03" x2="-439.57" y2="584.34" gradientUnits="userSpaceOnUse" gradientTransform="matrix(.04215 0 0 .04215 24.94 268.03)"/><radialGradient xlink:href="#g" id="t" cx="-498.91" cy="521.73" fx="-498.91" fy="521.73" r="4.31" gradientTransform="matrix(.3274 -.06841 .03636 .17399 147.89 165.23)" gradientUnits="userSpaceOnUse"/><linearGradient id="g"><stop offset="0" stop-color="#553e23" stop-opacity=".55"/><stop offset="1" stop-color="#553e23" stop-opacity="0"/></linearGradient><radialGradient xlink:href="#d" id="u" cx="-501.28" cy="566.19" fx="-501.28" fy="566.19" r="12.25" gradientTransform="matrix(-.0975 .1136 -.0087 -.00747 -39.69 352.89)" gradientUnits="userSpaceOnUse"/><radialGradient xlink:href="#e" id="v" cx="-483.87" cy="567.97" fx="-483.87" fy="567.97" r="13.27" gradientTransform="matrix(-.04281 .0429 -.00239 -.00238 -15.15 314.29)" gradientUnits="userSpaceOnUse"/><radialGradient xlink:href="#f" id="w" cx="-481.88" cy="482.49" fx="-481.88" fy="482.49" r="10.47" gradientTransform="matrix(.01462 .0382 -.09836 .03763 59.41 288.4)" gradientUnits="userSpaceOnUse"/><linearGradient xlink:href="#h" id="k" gradientUnits="userSpaceOnUse" x1=".73" y1="285.31" x2="14.95" y2="295.47"/><linearGradient xlink:href="#i" id="j" gradientUnits="userSpaceOnUse" gradientTransform="matrix(.26458 0 0 .26458 -5.3 284.3)" x1="44" y1="47.1" x2="47.22"/></defs><path d="M6.35 284.4c-1.54 0-2.78.29-3.69.87A3.67 3.67 0 0 0 1 288.52c0 1.91 1.54 4.47 2.01 5.2.54.85 1.13 1.61 1.65 2.16.68.7 1.21 1.03 1.69 1.03s1.01-.33 1.69-1.03c.52-.55 1.11-1.31 1.65-2.15.47-.74 2-3.3 2-5.21 0-1.42-.57-2.54-1.65-3.25a6.75 6.75 0 0 0-3.69-.88z" fill="url(#j)" transform="translate(0 -284.3)"/><path d="M6.35.1C4.81.1 3.57.38 2.66.96A3.67 3.67 0 0 0 1 4.22c0 1.91 1.54 4.47 2.01 5.2.54.85 1.13 1.61 1.65 2.16.68.7 1.21 1.03 1.69 1.03s1.01-.33 1.69-1.03c.52-.55 1.11-1.31 1.65-2.15.47-.74 2-3.3 2-5.21 0-1.42-.57-2.54-1.65-3.25A6.75 6.75 0 0 0 6.35.1zm0 .03C6.91.15 7.44.2 7.9.31a5.82 5.82 0 0 1 1.6.66 3.65 3.65 0 0 1 1.24 1.36c.14.27.25.57.32.88a4.61 4.61 0 0 1-.14 2.53c-.15.52-.36 1.04-.58 1.52-.44.97-.95 1.8-1.18 2.17-.54.84-1.12 1.6-1.65 2.15-.34.35-.64.61-.92.78a.96.96 0 0 1-.24.1.96.96 0 0 1-.24-.1 4.76 4.76 0 0 1-.92-.78 14.42 14.42 0 0 1-1.65-2.15c-.23-.37-.74-1.2-1.18-2.17-.22-.48-.43-1-.58-1.52a4.6 4.6 0 0 1-.14-2.52 3.73 3.73 0 0 1 .84-1.64 3.65 3.65 0 0 1 1.45-1c.27-.1.56-.2.87-.27.46-.1 1-.16 1.55-.18z" opacity=".21" fill="#1c2224"/><path d="M7.2 296.59c.26-.17.53-.39.84-.7.52-.56 1.11-1.32 1.65-2.16.23-.37.74-1.2 1.18-2.17.22-.48.43-1 .58-1.52.15-.52.25-1.04.25-1.52 0-.2-.04-.37-.06-.55l-1.83-1.82-.38.35-.7.7-.5-.27-.3-.21-.18.35.5.57-2.37.08-1.1-1.1-1.09.93-.13.25-.12.22 2.16 2.16-2.16 2.65z" opacity=".5" fill="url(#k)" transform="translate(0 -284.3)"/><path style="marker:none" d="M8.3 2.41c-.54-.47-.56.34-.55.36.1-.2.31-.26.7.13l-.33.33.26.2.3-.29c.41.4.32.44.15.7.26.06.73-.21.3-.57l-.28-.32c.33-.3.74-.77 1-.89.08-.15-.18-.4-.3-.32-.05.16-.58.68-.89 1.02z" overflow="visible" fill="#585046"/><path style="marker:none" d="M8.45 287.2l-.27.27.3.18.2-.22c.05-.1-.07-.3-.23-.22z" overflow="visible" opacity=".37" fill="url(#l)" transform="translate(0 -284.3)"/><path style="marker:none" d="M7.97 6.89l-.33.26c.52.5 1.04 1.17 1.57 1.4-.03-.56-.73-1.18-1.24-1.66z" overflow="visible" fill="#5d5b60" fill-opacity=".94"/><path style="marker:none" d="M9.37 1.99c.09.07.17.14.24.23-.21.18-.45.43-.67.65l-.2-.2c.21-.22.47-.48.63-.68z" overflow="visible" fill="#22211f"/><path style="marker:none" d="M8.13 291.35l-.04.23 1.12 1.25c-.08-.46-.5-.92-1.08-1.48z" overflow="visible" fill="url(#m)" transform="translate(0 -284.3)"/><path style="marker:none" d="M8 291.68l-.07.04c.38.34.83.9 1.12 1.02a8.9 8.9 0 0 1-1.04-1.06z" overflow="visible" fill="url(#n)" transform="translate(0 -284.3)"/><path style="marker:none" d="M4.36 2.41c.53-.47.55.34.54.36-.1-.2-.31-.26-.7.13l.33.33-.26.2-.3-.29c-.41.4-.32.44-.15.7-.26.06-.73-.21-.3-.57l.28-.32c-.33-.3-.74-.77-1-.89-.08-.15.18-.4.3-.32.05.16.58.68.89 1.02z" overflow="visible" fill="#585046"/><path style="marker:none" d="M4.2 287.2l.27.27-.3.18-.2-.22c-.05-.1.07-.3.23-.22z" overflow="visible" opacity=".37" fill="url(#o)" transform="translate(0 -284.3)"/><path style="marker:none" d="M4.68 6.88l.33.27c-.52.5-1.04 1.17-1.57 1.4.03-.56.73-1.18 1.24-1.67z" overflow="visible" fill="#5d5b60" fill-opacity=".94"/><path style="marker:none" d="M6.33 2.48c-.73.47-1.52.62-2.3.74-.12 2.65.23 4.36 2.3 6.04 2.07-1.68 2.42-3.39 2.3-6.04a5.83 5.83 0 0 1-2.3-.74z" overflow="visible" fill="#f3e195"/><path style="marker:none" d="M6.33 2.7c-.67.43-1.39.57-2.1.69-.1 2.42.21 3.97 2.1 5.51 1.9-1.54 2.21-3.1 2.1-5.51a5.32 5.32 0 0 1-2.1-.68z" overflow="visible" fill="#2f3535"/><path style="marker:none" d="M6.33 3.67c-.42.19-.84.3-1.28.41-.06 1.47.13 2.64 1.28 3.58 1.15-.94 1.35-2.1 1.28-3.58-.36-.1-.87-.24-1.28-.41z" overflow="visible" fill="#d3bc5f"/><path style="marker:none" d="M3.27 1.99c-.08.07-.16.14-.23.23.21.18.45.43.67.65l.2-.2L3.26 2z" overflow="visible" fill="#22211f"/><path style="marker:none" d="M4.05 287.54c.3-.06.62-.1.87-.17l.38.08c-.33.1-.7.16-1.08.23-.03.44-.03.83-.01 1.3h-.17c-.02-.47-.02-.96 0-1.44z" overflow="visible" fill="url(#p)" transform="translate(0 -284.3)"/><path style="marker:none" d="M5.08 287.33c.46-.13.83-.28 1.24-.54v.22c-.45.27-.85.4-1.24.5z" overflow="visible" fill="url(#q)" transform="translate(0 -284.3)"/><path style="marker:none" d="M8.25 287.64l-.07-.19.44.08c.03.98-.01 1.86-.13 2.62l-.13-.22c.11-.7.12-1.46.08-2.25z" overflow="visible" fill="url(#r)" transform="translate(0 -284.3)"/><path style="marker:none" d="M5.9 292.84c.14.13.29.27.43.37.3-.22.56-.49.8-.74l.25.04c-.33.38-.67.73-1.05 1.02-.26-.18-.49-.41-.72-.64z" overflow="visible" fill="url(#s)" transform="translate(0 -284.3)"/><path style="marker:none" d="M4.07 289.26h.17c.02.43.08.85.2 1.26l-.11.25c-.12-.5-.25-.95-.26-1.5z" overflow="visible" fill="url(#t)" transform="translate(0 -284.3)"/><path style="marker:none" d="M4.52 291.35l.04.23-1.12 1.25c.08-.46.5-.92 1.08-1.48z" overflow="visible" fill="url(#u)" transform="translate(0 -284.3)"/><path style="marker:none" d="M4.64 291.68l.07.04c-.37.34-.82.9-1.11 1.02.38-.3.98-.97 1.04-1.06z" overflow="visible" fill="url(#v)" transform="translate(0 -284.3)"/><path style="marker:none" d="M5.08 288.4c.27-.07.56-.15.86-.25l-.88.66z" overflow="visible" opacity=".52" fill="url(#w)" transform="translate(0 -284.3)"/></svg>

<?xml version="1.0" encoding="UTF-8" standalone="no"?>
<svg
   xmlns:dc="http://purl.org/dc/elements/1.1/"
   xmlns:cc="http://creativecommons.org/ns#"
   xmlns:rdf="http://www.w3.org/1999/02/22-rdf-syntax-ns#"
   xmlns:svg="http://www.w3.org/2000/svg"
   xmlns="http://www.w3.org/2000/svg"
   xmlns:xlink="http://www.w3.org/1999/xlink"
   xmlns:sodipodi="http://sodipodi.sourceforge.net/DTD/sodipodi-0.dtd"
   xmlns:inkscape="http://www.inkscape.org/namespaces/inkscape"
   width="48"
   height="48"
   viewBox="0 0 12.7 12.7"
   version="1.1"
   id="svg111"
   sodipodi:docname="wesnoth.svg"
   inkscape:version="0.92.4 (5da689c313, 2019-01-14)">
  <metadata
     id="metadata115">
    <rdf:RDF>
      <cc:Work
         rdf:about="">
        <dc:format>image/svg+xml</dc:format>
        <dc:type
           rdf:resource="http://purl.org/dc/dcmitype/StillImage" />
        <dc:title></dc:title>
      </cc:Work>
    </rdf:RDF>
  </metadata>
  <sodipodi:namedview
     pagecolor="#ffffff"
     bordercolor="#666666"
     borderopacity="1"
     objecttolerance="10"
     gridtolerance="10"
     guidetolerance="10"
     inkscape:pageopacity="0"
     inkscape:pageshadow="2"
     inkscape:window-width="1112"
     inkscape:window-height="480"
     id="namedview113"
     showgrid="false"
     inkscape:zoom="4.9166667"
     inkscape:cx="2.1355932"
     inkscape:cy="24"
     inkscape:window-x="0"
     inkscape:window-y="25"
     inkscape:window-maximized="0"
     inkscape:current-layer="svg111" />
  <defs
     id="defs61">
    <linearGradient
       id="i">
      <stop
         offset="0"
         stop-color="#d7eef4"
         id="stop2" />
      <stop
         offset=".45"
         stop-color="#5fbcb5"
         id="stop4" />
      <stop
         offset=".64"
         stop-color="#5fbcd3"
         id="stop6" />
      <stop
         offset="1"
         stop-color="#d7eef4"
         id="stop8" />
    </linearGradient>
    <linearGradient
       id="h">
      <stop
         offset="0"
         id="stop11" />
      <stop
         offset="1"
         stop-opacity="0"
         id="stop13" />
    </linearGradient>
    <clipPath
       id="a" />
    <linearGradient
       id="b">
      <stop
         offset="0"
         stop-color="#efb66b"
         id="stop17" />
      <stop
         offset="1"
         stop-color="#553e23"
         stop-opacity="0"
         id="stop19" />
    </linearGradient>
    <radialGradient
       xlink:href="#c"
       id="l"
       gradientUnits="userSpaceOnUse"
       gradientTransform="matrix(-0.04867,0.04868,0.02146,0.02146,-25.36,17.31)"
       cx="-494.94"
       cy="458.35"
       fx="-494.94"
       fy="458.35"
       r="6.13" />
    <linearGradient
       id="c">
      <stop
         offset="0"
         stop-color="#fff"
         id="stop23" />
      <stop
         offset="1"
         stop-color="#fff"
         stop-opacity="0"
         id="stop25" />
    </linearGradient>
    <radialGradient
       xlink:href="#d"
       id="m"
       gradientUnits="userSpaceOnUse"
       gradientTransform="matrix(0.0975,0.1136,0.0087,-0.00747,52.34,68.59)"
       cx="-501.28"
       cy="566.19"
       fx="-501.28"
       fy="566.19"
       r="12.25" />
    <linearGradient
       id="d">
      <stop
         offset="0"
         stop-color="#f5f5f5"
         id="stop29" />
      <stop
         offset="1"
         stop-color="#f5f5f5"
         stop-opacity="0"
         id="stop31" />
    </linearGradient>
    <radialGradient
       xlink:href="#e"
       id="n"
       gradientUnits="userSpaceOnUse"
       gradientTransform="matrix(0.04281,0.0429,0.00239,-0.00238,27.8,29.99)"
       cx="-483.87"
       cy="567.97"
       fx="-483.87"
       fy="567.97"
       r="13.27" />
    <linearGradient
       id="e">
      <stop
         offset="0"
         stop-color="#7e7c80"
         id="stop35" />
      <stop
         offset="1"
         stop-color="#7e7c80"
         stop-opacity="0"
         id="stop37" />
    </linearGradient>
    <radialGradient
       xlink:href="#c"
       id="o"
       cx="-494.94"
       cy="458.35"
       fx="-494.94"
       fy="458.35"
       r="6.13"
       gradientTransform="matrix(0.04867,0.04868,-0.02146,0.02146,38.01,17.31)"
       gradientUnits="userSpaceOnUse" />
    <linearGradient
       xlink:href="#f"
       id="p"
       x1="-498.86"
       y1="458.74"
       x2="-478.53"
       y2="471.12"
       gradientUnits="userSpaceOnUse"
       gradientTransform="matrix(0.04215,0,0,0.04215,24.94,-16.27)" />
    <linearGradient
       id="f">
      <stop
         offset="0"
         stop-color="#553e23"
         id="stop42" />
      <stop
         offset="1"
         stop-color="#553e23"
         stop-opacity="0"
         id="stop44" />
    </linearGradient>
    <linearGradient
       xlink:href="#f"
       id="q"
       x1="-428.5"
       y1="439.61"
       x2="-466.5"
       y2="457.86"
       gradientUnits="userSpaceOnUse"
       gradientTransform="matrix(0.04215,0,0,0.04215,24.94,-16.27)" />
    <linearGradient
       xlink:href="#f"
       id="r"
       x1="-400.22"
       y1="439.83"
       x2="-390.85"
       y2="520.09"
       gradientUnits="userSpaceOnUse"
       gradientTransform="matrix(0.04215,0,0,0.04215,24.94,-16.27)" />
    <linearGradient
       xlink:href="#f"
       id="s"
       x1="-431.56"
       y1="611.03"
       x2="-439.57"
       y2="584.34"
       gradientUnits="userSpaceOnUse"
       gradientTransform="matrix(0.04215,0,0,0.04215,24.94,-16.27)" />
    <radialGradient
       xlink:href="#g"
       id="t"
       cx="-498.91"
       cy="521.73"
       fx="-498.91"
       fy="521.73"
       r="4.31"
       gradientTransform="matrix(0.3274,-0.06841,0.03636,0.17399,147.89,-119.07)"
       gradientUnits="userSpaceOnUse" />
    <linearGradient
       id="g">
      <stop
         offset="0"
         stop-color="#553e23"
         stop-opacity=".55"
         id="stop51" />
      <stop
         offset="1"
         stop-color="#553e23"
         stop-opacity="0"
         id="stop53" />
    </linearGradient>
    <radialGradient
       xlink:href="#d"
       id="u"
       cx="-501.28"
       cy="566.19"
       fx="-501.28"
       fy="566.19"
       r="12.25"
       gradientTransform="matrix(-0.0975,0.1136,-0.0087,-0.00747,-39.69,68.59)"
       gradientUnits="userSpaceOnUse" />
    <radialGradient
       xlink:href="#e"
       id="v"
       cx="-483.87"
       cy="567.97"
       fx="-483.87"
       fy="567.97"
       r="13.27"
       gradientTransform="matrix(-0.04281,0.0429,-0.00239,-0.00238,-15.15,29.99)"
       gradientUnits="userSpaceOnUse" />
    <radialGradient
       xlink:href="#f"
       id="w"
       cx="-481.88"
       cy="482.49"
       fx="-481.88"
       fy="482.49"
       r="10.47"
       gradientTransform="matrix(0.01462,0.0382,-0.09836,0.03763,59.41,4.1)"
       gradientUnits="userSpaceOnUse" />
    <linearGradient
       xlink:href="#h"
       id="k"
       gradientUnits="userSpaceOnUse"
       x1=".73"
       y1="285.31"
       x2="14.95"
       y2="295.47"
       gradientTransform="translate(0,-284.3)" />
    <linearGradient
       xlink:href="#i"
       id="j"
       gradientUnits="userSpaceOnUse"
       gradientTransform="matrix(0.26458,0,0,0.26458,-5.3,0)"
       x1="44"
       y1="47.1"
       x2="47.22" />
  </defs>
  <path
     d="M 6.35,0.1 C 4.81,0.1 3.57,0.39 2.66,0.97 A 3.67,3.67 0 0 0 1,4.22 c 0,1.91 1.54,4.47 2.01,5.2 0.54,0.85 1.13,1.61 1.65,2.16 0.68,0.7 1.21,1.03 1.69,1.03 0.48,0 1.01,-0.33 1.69,-1.03 0.52,-0.55 1.11,-1.31 1.65,-2.15 0.47,-0.74 2,-3.3 2,-5.21 0,-1.42 -0.57,-2.54 -1.65,-3.25 A 6.75,6.75 0 0 0 6.35,0.09 Z"
     id="path63"
     style="fill:url(#j)"
     inkscape:connector-curvature="0" />
  <path
     d="M 6.35,0.1 C 4.81,0.1 3.57,0.38 2.66,0.96 A 3.67,3.67 0 0 0 1,4.22 c 0,1.91 1.54,4.47 2.01,5.2 0.54,0.85 1.13,1.61 1.65,2.16 0.68,0.7 1.21,1.03 1.69,1.03 0.48,0 1.01,-0.33 1.69,-1.03 0.52,-0.55 1.11,-1.31 1.65,-2.15 0.47,-0.74 2,-3.3 2,-5.21 0,-1.42 -0.57,-2.54 -1.65,-3.25 A 6.75,6.75 0 0 0 6.35,0.1 Z m 0,0.03 C 6.91,0.15 7.44,0.2 7.9,0.31 a 5.82,5.82 0 0 1 1.6,0.66 3.65,3.65 0 0 1 1.24,1.36 c 0.14,0.27 0.25,0.57 0.32,0.88 A 4.61,4.61 0 0 1 10.92,5.74 C 10.77,6.26 10.56,6.78 10.34,7.26 9.9,8.23 9.39,9.06 9.16,9.43 8.62,10.27 8.04,11.03 7.51,11.58 7.17,11.93 6.87,12.19 6.59,12.36 A 0.96,0.96 0 0 1 6.35,12.46 0.96,0.96 0 0 1 6.11,12.36 4.76,4.76 0 0 1 5.19,11.58 14.42,14.42 0 0 1 3.54,9.43 C 3.31,9.06 2.8,8.23 2.36,7.26 2.14,6.78 1.93,6.26 1.78,5.74 A 4.6,4.6 0 0 1 1.64,3.22 3.73,3.73 0 0 1 2.48,1.58 3.65,3.65 0 0 1 3.93,0.58 C 4.2,0.48 4.49,0.38 4.8,0.31 5.26,0.21 5.8,0.15 6.35,0.13 Z"
     id="path65"
     inkscape:connector-curvature="0"
     style="opacity:0.21000001;fill:#1c2224" />
  <path
     d="M 7.2,12.29 C 7.46,12.12 7.73,11.9 8.04,11.59 8.56,11.03 9.15,10.27 9.69,9.43 9.92,9.06 10.43,8.23 10.87,7.26 11.09,6.78 11.3,6.26 11.45,5.74 11.6,5.22 11.7,4.7 11.7,4.22 11.7,4.02 11.66,3.85 11.64,3.67 L 9.81,1.85 9.43,2.2 8.73,2.9 8.23,2.63 7.93,2.42 7.75,2.77 8.25,3.34 5.88,3.42 4.78,2.32 3.69,3.25 3.56,3.5 3.44,3.72 5.6,5.88 3.44,8.53 Z"
     id="path67"
     style="opacity:0.5;fill:url(#k)"
     inkscape:connector-curvature="0" />
  <path
     style="overflow:visible;fill:#585046;marker:none"
     d="M 8.3,2.41 C 7.76,1.94 7.74,2.75 7.75,2.77 7.85,2.57 8.06,2.51 8.45,2.9 L 8.12,3.23 8.38,3.43 8.68,3.14 C 9.09,3.54 9,3.58 8.83,3.84 9.09,3.9 9.56,3.63 9.13,3.27 L 8.85,2.95 C 9.18,2.65 9.59,2.18 9.85,2.06 9.93,1.91 9.67,1.66 9.55,1.74 9.5,1.9 8.97,2.42 8.66,2.76 Z"
     overflow="visible"
     id="path69"
     inkscape:connector-curvature="0" />
  <path
     style="overflow:visible;opacity:0.37000002;fill:url(#l);marker:none"
     d="M 8.45,2.9 8.18,3.17 8.48,3.35 8.68,3.13 C 8.73,3.03 8.61,2.83 8.45,2.91 Z"
     overflow="visible"
     id="path71"
     inkscape:connector-curvature="0" />
  <path
     style="overflow:visible;fill:#5d5b60;fill-opacity:0.93999999;marker:none"
     d="M 7.97,6.89 7.64,7.15 C 8.16,7.65 8.68,8.32 9.21,8.55 9.18,7.99 8.48,7.37 7.97,6.89 Z"
     overflow="visible"
     id="path73"
     inkscape:connector-curvature="0" />
  <path
     style="overflow:visible;fill:#22211f;marker:none"
     d="M 9.37,1.99 C 9.46,2.06 9.54,2.13 9.61,2.22 9.4,2.4 9.16,2.65 8.94,2.87 L 8.74,2.67 C 8.95,2.45 9.21,2.19 9.37,1.99 Z"
     overflow="visible"
     id="path75"
     inkscape:connector-curvature="0" />
  <path
     style="overflow:visible;fill:url(#m);marker:none"
     d="M 8.13,7.05 8.09,7.28 9.21,8.53 C 9.13,8.07 8.71,7.61 8.13,7.05 Z"
     overflow="visible"
     id="path77"
     inkscape:connector-curvature="0" />
  <path
     style="overflow:visible;fill:url(#n);marker:none"
     d="M 8,7.38 7.93,7.42 c 0.38,0.34 0.83,0.9 1.12,1.02 A 8.9,8.9 0 0 1 8.01,7.38 Z"
     overflow="visible"
     id="path79"
     inkscape:connector-curvature="0" />
  <path
     style="overflow:visible;fill:#585046;marker:none"
     d="M 4.36,2.41 C 4.89,1.94 4.91,2.75 4.9,2.77 4.8,2.57 4.59,2.51 4.2,2.9 L 4.53,3.23 4.27,3.43 3.97,3.14 C 3.56,3.54 3.65,3.58 3.82,3.84 3.56,3.9 3.09,3.63 3.52,3.27 L 3.8,2.95 C 3.47,2.65 3.06,2.18 2.8,2.06 2.72,1.91 2.98,1.66 3.1,1.74 3.15,1.9 3.68,2.42 3.99,2.76 Z"
     overflow="visible"
     id="path81"
     inkscape:connector-curvature="0" />
  <path
     style="overflow:visible;opacity:0.37000002;fill:url(#o);marker:none"
     d="M 4.2,2.9 4.47,3.17 4.17,3.35 3.97,3.13 C 3.92,3.03 4.04,2.83 4.2,2.91 Z"
     overflow="visible"
     id="path83"
     inkscape:connector-curvature="0" />
  <path
     style="overflow:visible;fill:#5d5b60;fill-opacity:0.93999999;marker:none"
     d="M 4.68,6.88 5.01,7.15 C 4.49,7.65 3.97,8.32 3.44,8.55 3.47,7.99 4.17,7.37 4.68,6.88 Z"
     overflow="visible"
     id="path85"
     inkscape:connector-curvature="0" />
  <path
     style="overflow:visible;fill:#f3e195;marker:none"
     d="M 6.33,2.48 C 5.6,2.95 4.81,3.1 4.03,3.22 3.91,5.87 4.26,7.58 6.33,9.26 8.4,7.58 8.75,5.87 8.63,3.22 A 5.83,5.83 0 0 1 6.33,2.48 Z"
     overflow="visible"
     id="path87"
     inkscape:connector-curvature="0" />
  <path
     style="overflow:visible;fill:#2f3535;marker:none"
     d="M 6.33,2.7 C 5.66,3.13 4.94,3.27 4.23,3.39 4.13,5.81 4.44,7.36 6.33,8.9 8.23,7.36 8.54,5.8 8.43,3.39 A 5.32,5.32 0 0 1 6.33,2.71 Z"
     overflow="visible"
     id="path89"
     inkscape:connector-curvature="0" />
  <path
     style="overflow:visible;fill:#d3bc5f;marker:none"
     d="M 6.33,3.67 C 5.91,3.86 5.49,3.97 5.05,4.08 4.99,5.55 5.18,6.72 6.33,7.66 7.48,6.72 7.68,5.56 7.61,4.08 7.25,3.98 6.74,3.84 6.33,3.67 Z"
     overflow="visible"
     id="path91"
     inkscape:connector-curvature="0" />
  <path
     style="overflow:visible;fill:#22211f;marker:none"
     d="M 3.27,1.99 C 3.19,2.06 3.11,2.13 3.04,2.22 3.25,2.4 3.49,2.65 3.71,2.87 L 3.91,2.67 3.26,2 Z"
     overflow="visible"
     id="path93"
     inkscape:connector-curvature="0" />
  <path
     style="overflow:visible;fill:url(#p);marker:none"
     d="M 4.05,3.24 C 4.35,3.18 4.67,3.14 4.92,3.07 L 5.3,3.15 C 4.97,3.25 4.6,3.31 4.22,3.38 4.19,3.82 4.19,4.21 4.21,4.68 H 4.04 C 4.02,4.21 4.02,3.72 4.04,3.24 Z"
     overflow="visible"
     id="path95"
     inkscape:connector-curvature="0" />
  <path
     style="overflow:visible;fill:url(#q);marker:none"
     d="M 5.08,3.03 C 5.54,2.9 5.91,2.75 6.32,2.49 V 2.71 C 5.87,2.98 5.47,3.11 5.08,3.21 Z"
     overflow="visible"
     id="path97"
     inkscape:connector-curvature="0" />
  <path
     style="overflow:visible;fill:url(#r);marker:none"
     d="M 8.25,3.34 8.18,3.15 8.62,3.23 C 8.65,4.21 8.61,5.09 8.49,5.85 L 8.36,5.63 C 8.47,4.93 8.48,4.17 8.44,3.38 Z"
     overflow="visible"
     id="path99"
     inkscape:connector-curvature="0" />
  <path
     style="overflow:visible;fill:url(#s);marker:none"
     d="M 5.9,8.54 C 6.04,8.67 6.19,8.81 6.33,8.91 6.63,8.69 6.89,8.42 7.13,8.17 L 7.38,8.21 C 7.05,8.59 6.71,8.94 6.33,9.23 6.07,9.05 5.84,8.82 5.61,8.59 Z"
     overflow="visible"
     id="path101"
     inkscape:connector-curvature="0" />
  <path
     style="overflow:visible;fill:url(#t);marker:none"
     d="m 4.07,4.96 h 0.17 c 0.02,0.43 0.08,0.85 0.2,1.26 L 4.33,6.47 C 4.21,5.97 4.08,5.52 4.07,4.97 Z"
     overflow="visible"
     id="path103"
     inkscape:connector-curvature="0" />
  <path
     style="overflow:visible;fill:url(#u);marker:none"
     d="M 4.52,7.05 4.56,7.28 3.44,8.53 C 3.52,8.07 3.94,7.61 4.52,7.05 Z"
     overflow="visible"
     id="path105"
     inkscape:connector-curvature="0" />
  <path
     style="overflow:visible;fill:url(#v);marker:none"
     d="M 4.64,7.38 4.71,7.42 C 4.34,7.76 3.89,8.32 3.6,8.44 3.98,8.14 4.58,7.47 4.64,7.38 Z"
     overflow="visible"
     id="path107"
     inkscape:connector-curvature="0" />
  <path
     style="overflow:visible;opacity:0.51999996;fill:url(#w);marker:none"
     d="M 5.08,4.1 C 5.35,4.03 5.64,3.95 5.94,3.85 L 5.06,4.51 Z"
     overflow="visible"
     id="path109"
     inkscape:connector-curvature="0" />
</svg>
